X:1
T:Title
%%score { ( 1 3 ) | ( 2 4 ) }
L:1/8
Q:1/4=110
M:4/4
K:G
V:1 treble nm="Grand Piano"
V:3 treble 
V:2 bass 
V:4 bass 
V:1
 [B,DG]4 [B,DG]2 [B,DG]2 | z4 G4 | [CEA]4 D2- [DF]2 | G8 | G3 A [B,GB]2 [EGB]2 | [B,GB]6 [CFA]2 | %6
w: Wm.~B.~Bradbuy * *||||||
 [EG]4 [B,^DF]4 | [B,EG]8 | [DFA]4 [DFA]2 [DFA]2 | [DGB]4 [DGB]4 | [DFc]4 [DGB]4 | [DFA]8 | %12
w: ||||||
 [B,DG]4 [B,DG]2 [B,DG]2 | [A,DF]4 G4 | [CEA]4 [B,G]2 F2 | G8 |] %16
w: ||||
V:2
 G,4 G,2 G,2 | D,2 C,2 z2 D2 | C,4 z2 A,2 | [G,B,D]8 | E3 F E,2 E,2 | E,3 F, G,2 A,2 | B,4 B,,4 | %7
 E,8 | D,4 D,2 D,2 | G,4 G,4 | A,4 G,4 | D,8 | G,4 G,2 G,2 | D,2 C,2 z2 D2 | C,4 z2 A,2 | %15
 [G,B,D]8 |] %16
V:3
 x8 | [A,DF]4 [B,D]2 z2 | z4 [B,G]2 z2 | x8 | x8 | x8 | x8 | x8 | x8 | x8 | x8 | x8 | x8 | %13
 z4 [B,D]2 z2 | z4 D4 | x8 |] %16
V:4
 x8 | z4 B,,4 | z4 D,4 | x8 | [E,B,]4 z4 | x8 | x8 | x8 | x8 | x8 | x8 | x8 | x8 | z4 B,,4 | %14
 z4 D,4 | x8 |] %16

